frontend/src/assets/consenz-logo.svg

<svg xmlns="http://www.w3.org/2000/svg" width="144" height="16" viewBox="0 0 144 16" fill="none">
  <path fill-rule="evenodd" clip-rule="evenodd" d="M54.18 4.69984C54.18 5.18913 54.4399 5.53978 54.9597 5.75181C55.4794 5.96383 56.4247 6.14201 57.7957 6.28635C59.3741 6.44944 60.6622 6.91223 61.66 7.67469C62.6578 8.43716 63.1576 9.50013 63.1592 10.8636V11.0459C63.1592 12.5512 62.5979 13.7516 61.4751 14.647C60.3523 15.5424 58.7735 15.9909 56.7387 15.9925C55.5327 15.9925 54.5041 15.8396 53.6528 15.5338C52.8829 15.2752 52.1643 14.8883 51.5289 14.3901C50.9992 13.97 50.5593 13.4516 50.2346 12.8648C49.951 12.3527 49.7464 11.8025 49.6274 11.2318L53.243 10.0722C53.412 10.7307 53.7748 11.3262 54.2863 11.7847C54.816 12.274 55.6318 12.5186 56.7338 12.5186C57.7099 12.5186 58.38 12.371 58.744 12.0758C59.108 11.7806 59.2895 11.4601 59.2887 11.1144C59.2906 10.9179 59.2425 10.7241 59.1488 10.5505C59.0239 10.3461 58.8464 10.1774 58.634 10.0612C58.3192 9.88293 57.9777 9.75415 57.6221 9.67954C57.0933 9.56187 56.5569 9.48013 56.0166 9.43489C54.2675 9.293 52.8807 8.85061 51.8562 8.10771C50.8318 7.36481 50.3183 6.26922 50.3158 4.82094V4.63868C50.3009 3.94578 50.4733 3.26134 50.8155 2.65463C51.1454 2.08835 51.5911 1.59487 52.1248 1.20513C52.6893 0.797354 53.3241 0.492398 53.9989 0.304844C54.7058 0.102511 55.4388 0.000353813 56.1753 0.00148586C57.0356 -0.014854 57.8931 0.103663 58.7152 0.352547C59.3709 0.555525 59.987 0.864811 60.5381 1.26751C61.0104 1.61679 61.4211 2.0395 61.7537 2.51885C62.0418 2.93412 62.2823 3.3792 62.4708 3.84604L58.9176 5.24906C58.7489 4.72492 58.4097 4.26916 57.9519 3.95124C57.4946 3.63728 56.9024 3.47989 56.1753 3.47908C55.509 3.47908 55.0092 3.5961 54.6761 3.83014C54.5256 3.92288 54.4014 4.0511 54.3147 4.20305C54.2281 4.355 54.1818 4.52582 54.18 4.69984ZM32.7285 8.17714C32.7285 9.4395 32.5102 10.5534 32.0738 11.519C31.6661 12.4489 31.0604 13.2829 30.2972 13.9654C29.548 14.6268 28.6748 15.1394 27.726 15.4748C25.7618 16.168 23.612 16.168 21.6478 15.4748C20.7004 15.1374 19.8289 14.6231 19.0816 13.9605C18.3192 13.2776 17.714 12.4437 17.3063 11.5141C16.869 10.5477 16.6508 9.43379 16.6516 8.17225V7.80529C16.6516 6.56495 16.8698 5.46121 17.3063 4.49405C17.718 3.56558 18.3226 2.73118 19.0816 2.04396C19.8274 1.37432 20.7013 0.855902 21.6528 0.518616C23.6173 -0.172872 25.7665 -0.172872 27.731 0.518616C28.6825 0.855902 29.5564 1.37432 30.3022 2.04396C31.0613 2.73294 31.6652 3.56953 32.075 4.50017C32.5274 5.54694 32.7504 6.67498 32.7297 7.8114L32.7285 8.17714ZM24.6875 12.3275C25.2298 12.3306 25.7682 12.2377 26.2767 12.0535C26.7689 11.878 27.2184 11.6043 27.5967 11.2497C27.975 10.8951 28.2739 10.4673 28.4744 9.99361C28.6997 9.45647 28.8111 8.88007 28.8017 8.29946V7.68786C28.8109 7.10766 28.6995 6.53169 28.4744 5.99493C28.2739 5.5212 27.975 5.09345 27.5967 4.73884C27.2184 4.38423 26.7689 4.1105 26.2767 3.93505C25.25 3.5681 24.1238 3.5681 23.0971 3.93505C22.611 4.11082 22.166 4.38083 21.789 4.72891C21.4062 5.08582 21.1036 5.51702 20.9007 5.99493C20.6748 6.53148 20.5634 7.1076 20.5734 7.68786V8.29946C20.5633 8.88013 20.6747 9.45667 20.9007 9.99361C21.1045 10.4696 21.407 10.899 21.789 11.2547C22.166 11.6028 22.611 11.8728 23.0971 12.0486C23.6058 12.2344 24.1446 12.3289 24.6875 12.3275ZM15.9032 10.0084C15.55 11.8025 14.7138 13.2471 13.3945 14.3423C12.0751 15.4375 10.3139 15.9867 8.1109 15.9899C7.02333 15.9988 5.94245 15.8229 4.91627 15.4701C3.96343 15.1469 3.08716 14.6384 2.34008 13.9753C1.59735 13.3025 1.01253 12.4799 0.62595 11.5644C0.19399 10.5288 -0.0185376 9.41806 0.00126717 8.29961V7.93265C-0.0163859 6.80446 0.195985 5.68416 0.62595 4.63731C1.01832 3.69415 1.60771 2.84169 2.35632 2.13462C3.09911 1.43808 3.97907 0.897016 4.94251 0.544448C5.95596 0.175696 7.02977 -0.0083713 8.1109 0.00134186C10.2723 0.00134186 12.0214 0.550564 13.3582 1.64901C14.6951 2.74745 15.5417 4.19166 15.8982 5.98163L12.0339 6.9602C11.9172 6.07715 11.5 5.25837 10.8495 4.63609C10.1832 3.98371 9.24782 3.65752 8.04343 3.65752C7.4982 3.6549 6.9579 3.75887 6.45424 3.96333C5.96167 4.16258 5.51606 4.45857 5.1449 4.83303C4.75911 5.22856 4.45719 5.69503 4.25661 6.20547C4.03136 6.7853 3.92028 7.40165 3.92927 8.02194V8.2042C3.91818 8.81472 4.02939 9.42144 4.25661 9.99009C4.45508 10.4793 4.75792 10.9213 5.1449 11.2867C5.52269 11.6358 5.97199 11.9022 6.46298 12.0683C6.97354 12.2436 7.51115 12.3313 8.05217 12.3277C9.25739 12.3277 10.1769 12.0329 10.8108 11.4433C11.4446 10.8537 11.8552 10.0602 12.0426 9.06289L15.9032 10.0084ZM33.8817 15.5619H37.8084V7.68933C37.8109 6.40741 38.0966 5.38521 38.6655 4.62274C39.2344 3.86027 40.1019 3.47903 41.2679 3.47903C42.2658 3.47985 43.0295 3.79014 43.5593 4.4099C44.089 5.02966 44.3539 5.87898 44.3539 6.95785V15.5619H48.2819V5.9805C48.2827 4.94404 48.1424 4.04905 47.8608 3.29555C47.6159 2.59846 47.2171 1.9628 46.6927 1.43382C46.204 0.952494 45.6127 0.582834 44.9611 0.351281C44.2863 0.114007 43.5741 -0.00483542 42.8571 0.000220175C41.7977 -0.0005953 40.8731 0.233448 40.0835 0.702346C39.3032 1.15874 38.7002 1.85631 38.3694 2.68517H37.8084V0.427124H33.8817V15.5619ZM68.6489 10.4816C68.4485 10.0983 68.3368 9.67654 68.3215 9.2462L79.6833 9.25232V7.20711C79.6753 6.37061 79.528 5.54099 79.2472 4.7509C78.9502 3.89501 78.4832 3.10513 77.8729 2.4268C77.2098 1.69589 76.4023 1.10417 75.4991 0.687392C74.5463 0.229911 73.4035 0.00117194 72.0709 0.00117194C71.0302 -0.00602203 69.9982 0.185517 69.0324 0.565071C68.1102 0.926633 67.2687 1.46051 66.5549 2.1369C65.8325 2.831 65.2647 3.66393 64.887 4.58332C64.4721 5.59123 64.2658 6.66974 64.2798 7.75633V7.93982C64.2608 9.09367 64.4559 10.2413 64.8558 11.3269C65.209 12.2735 65.7624 13.1364 66.48 13.8589C67.1815 14.5553 68.0265 15.0974 68.9587 15.4491C69.9736 15.8257 71.0518 16.012 72.1371 15.9983C73.0374 16.0136 73.9351 15.9002 74.802 15.662C75.4858 15.4712 76.137 15.1827 76.7347 14.8057C77.2255 14.4942 77.6621 14.1077 78.0278 13.6608C78.332 13.2883 78.5934 12.8843 78.8075 12.4559L75.4342 10.6211C75.1803 11.1167 74.7911 11.5338 74.3097 11.826C73.7875 12.1619 73.0379 12.3299 72.0609 12.3299C71.5784 12.3327 71.0989 12.2553 70.6428 12.1012C70.2125 11.9576 69.8116 11.7406 69.4585 11.4602C69.1219 11.1928 68.8462 10.8595 68.6489 10.4816ZM69.5984 4.22615C70.2197 3.72789 71.0302 3.47876 72.0296 3.47876C73.0275 3.47958 73.8537 3.71362 74.5084 4.18089C75.1631 4.64816 75.5528 5.23774 75.6778 5.94965H68.384C68.5722 5.2989 68.977 4.7244 69.5984 4.22615ZM85.0893 15.5619H81.1613V0.427124H85.0893V2.68517H85.6503C85.9807 1.85607 86.5838 1.15838 87.3644 0.702346C88.1523 0.233448 89.0769 -0.0005953 90.138 0.000220175C90.8549 -0.00483542 91.5672 0.114007 92.2419 0.351281C92.8929 0.582717 93.4834 0.952416 93.9711 1.43382C94.4954 1.96305 94.8946 2.59861 95.1405 3.29555C95.4203 4.04905 95.5602 4.94404 95.5602 5.9805V15.5619H91.6335V6.95785C91.6335 5.87898 91.3686 5.02966 90.8389 4.4099C90.3092 3.79014 89.545 3.47985 88.5463 3.47903C87.3802 3.47903 86.5128 3.86027 85.9439 4.62274C85.375 5.38521 85.0893 6.40741 85.0868 7.68933L85.0893 15.5619ZM110.869 15.5616V11.9005H100.77V11.3513L110.494 6.65168V0.426758H97.5917V3.96673H107.128V4.51595L97.4043 9.15437V15.5616H110.869Z" fill="#A575F7"/>
  <path d="M119.229 11.5364C119.868 11.5364 120.351 11.3856 120.677 11.0841C121.007 10.7788 121.172 10.351 121.172 9.80071C121.172 9.54817 121.127 9.32203 121.038 9.12226C120.952 8.91873 120.826 8.74723 120.662 8.60777C120.497 8.46455 120.294 8.35524 120.053 8.27986C119.813 8.20448 119.54 8.16678 119.234 8.16678H117.4V11.5364H119.229ZM117.4 4.45795V7.74276H118.976C119.313 7.74276 119.6 7.69564 119.837 7.60141C120.078 7.50719 120.273 7.3828 120.424 7.22827C120.579 7.07373 120.692 6.89847 120.765 6.70247C120.837 6.50648 120.873 6.30483 120.873 6.09753C120.873 5.55854 120.717 5.15147 120.404 4.87633C120.095 4.59741 119.615 4.45795 118.966 4.45795H117.4ZM118.966 4C119.382 4 119.743 4.04523 120.048 4.13569C120.354 4.22615 120.607 4.35995 120.806 4.5371C121.005 4.71048 121.153 4.92344 121.249 5.17597C121.345 5.4285 121.393 5.71496 121.393 6.03534C121.393 6.24641 121.359 6.44994 121.29 6.64594C121.225 6.84193 121.129 7.02285 121.002 7.18869C120.878 7.35454 120.723 7.49965 120.538 7.62403C120.356 7.74464 120.146 7.83698 119.909 7.90106C120.483 7.99152 120.923 8.20071 121.228 8.52862C121.538 8.85277 121.692 9.28057 121.692 9.81201C121.692 10.1512 121.637 10.4565 121.527 10.7279C121.417 10.9993 121.258 11.2292 121.048 11.4177C120.838 11.6061 120.581 11.7512 120.275 11.853C119.969 11.951 119.622 12 119.234 12H116.869V4H118.966Z" fill="#F8EFFF"/>
  <path d="M128.998 11.5194L128.988 12H124.618V4H128.988V4.48057H125.148V7.71449H128.343V8.18375H125.148V11.5194H128.998Z" fill="#F8EFFF"/>
  <path d="M136.574 4.49187H134.013V12H133.482V4.49187H130.905V4H136.574V4.49187Z" fill="#F8EFFF"/>
  <path d="M142.256 9.09399L140.772 5.05159C140.72 4.91967 140.67 4.76137 140.622 4.57668C140.602 4.66714 140.579 4.75383 140.555 4.83675C140.531 4.9159 140.505 4.9894 140.478 5.05724L138.994 9.09399H142.256ZM143.869 12H143.462C143.414 12 143.374 11.9868 143.343 11.9604C143.312 11.9303 143.288 11.8926 143.271 11.8474L142.415 9.52367H138.834L137.978 11.8474C137.965 11.8888 137.941 11.9246 137.906 11.9548C137.872 11.9849 137.831 12 137.783 12H137.381L140.364 4H140.885L143.869 12Z" fill="#F8EFFF"/>
</svg>

<svg width="111" height="16" viewBox="0 0 111 16" fill="none" xmlns="http://www.w3.org/2000/svg">
    <path fill-rule="evenodd" clip-rule="evenodd" d="M54.18 4.7c0 .49.26.84.78 1.052.52.212 1.465.39 2.836.534 1.578.163 2.866.626 3.864 1.389.998.762 1.498 1.825 1.5 3.189v.182c0 1.505-.562 2.706-1.685 3.601s-2.702 1.344-4.736 1.345c-1.206 0-2.235-.152-3.086-.458a7.112 7.112 0 0 1-2.124-1.144 5.1 5.1 0 0 1-1.294-1.525 5.824 5.824 0 0 1-.608-1.633l3.616-1.16a3.454 3.454 0 0 0 1.043 1.713c.53.489 1.346.734 2.448.734.976 0 1.646-.148 2.01-.443.364-.295.545-.616.545-.962a1.163 1.163 0 0 0-.14-.564 1.377 1.377 0 0 0-.515-.489 3.52 3.52 0 0 0-1.012-.381c-.529-.118-1.065-.2-1.605-.245-1.75-.142-3.136-.584-4.16-1.327-1.025-.743-1.539-1.839-1.541-3.287v-.182a3.868 3.868 0 0 1 .5-1.984c.33-.567.775-1.06 1.309-1.45a5.897 5.897 0 0 1 1.874-.9A7.867 7.867 0 0 1 56.175 0a8.229 8.229 0 0 1 2.54.352 6.194 6.194 0 0 1 1.823.915c.472.349.883.771 1.216 1.25.288.416.528.861.717 1.328l-3.553 1.403a2.523 2.523 0 0 0-.966-1.298c-.457-.314-1.05-.471-1.777-.472-.666 0-1.166.117-1.499.351a1.05 1.05 0 0 0-.361.373 1.024 1.024 0 0 0-.135.497zM32.728 8.177c0 1.263-.218 2.376-.654 3.342a7.118 7.118 0 0 1-1.777 2.446 7.825 7.825 0 0 1-2.571 1.51 9.143 9.143 0 0 1-6.078 0 7.824 7.824 0 0 1-2.566-1.514 7.131 7.131 0 0 1-1.776-2.447c-.437-.966-.655-2.08-.654-3.342v-.367c0-1.24.218-2.344.654-3.311a7.297 7.297 0 0 1 1.776-2.45 7.697 7.697 0 0 1 2.57-1.525 9.164 9.164 0 0 1 6.079 0 7.697 7.697 0 0 1 2.571 1.525A7.282 7.282 0 0 1 32.075 4.5a7.977 7.977 0 0 1 .655 3.311l-.002.366zm-8.04 4.15a4.59 4.59 0 0 0 1.589-.274c.492-.175.941-.449 1.32-.803.378-.355.677-.783.877-1.256a4.203 4.203 0 0 0 .328-1.695v-.611a4.204 4.204 0 0 0-.328-1.693c-.2-.474-.499-.902-.877-1.256a3.79 3.79 0 0 0-1.32-.804 4.73 4.73 0 0 0-3.18 0 3.866 3.866 0 0 0-1.308.794 3.719 3.719 0 0 0-.888 1.266 4.176 4.176 0 0 0-.328 1.693v.611c-.01.581.102 1.158.328 1.695.204.476.506.905.888 1.26.377.349.822.619 1.308.795.509.185 1.048.28 1.59.279zm-8.785-2.319c-.353 1.795-1.19 3.24-2.508 4.334-1.32 1.095-3.081 1.645-5.284 1.648a9.587 9.587 0 0 1-3.195-.52 7.518 7.518 0 0 1-2.576-1.495 6.85 6.85 0 0 1-1.714-2.41A8.105 8.105 0 0 1 .001 8.3v-.367a8.328 8.328 0 0 1 .625-3.296 7.302 7.302 0 0 1 1.73-2.502A7.596 7.596 0 0 1 4.943.545 9.032 9.032 0 0 1 8.11 0c2.161 0 3.91.55 5.247 1.648 1.337 1.098 2.184 2.543 2.54 4.333l-3.864.978a3.93 3.93 0 0 0-1.184-2.324c-.667-.652-1.602-.978-2.807-.978a4.173 4.173 0 0 0-1.589.305c-.492.2-.938.496-1.31.87a4.129 4.129 0 0 0-.887 1.372 4.822 4.822 0 0 0-.328 1.817v.182c-.01.61.1 1.217.328 1.786.198.49.5.931.888 1.297.378.349.827.615 1.318.781.51.176 1.048.263 1.59.26 1.204 0 2.124-.295 2.758-.885.634-.59 1.044-1.383 1.232-2.38l3.86.945zm17.979 5.554h3.926V7.689c.003-1.282.289-2.304.858-3.066.568-.763 1.436-1.144 2.602-1.144.998 0 1.761.311 2.291.93.53.62.795 1.47.795 2.549v8.604h3.928V5.98c0-1.036-.14-1.931-.421-2.684a4.999 4.999 0 0 0-1.168-1.862A4.718 4.718 0 0 0 44.96.35a6.212 6.212 0 0 0-2.104-.35c-1.06-.002-1.984.232-2.773.701a4.033 4.033 0 0 0-1.715 1.983h-.56V.427h-3.927v15.135zm34.767-5.08a2.887 2.887 0 0 1-.328-1.236l11.362.006V7.207a7.548 7.548 0 0 0-.436-2.456 6.817 6.817 0 0 0-1.374-2.324 7.377 7.377 0 0 0-2.374-1.74C74.546.23 73.403.001 72.071.001a8.155 8.155 0 0 0-3.039.564 7.673 7.673 0 0 0-2.477 1.572 7.175 7.175 0 0 0-1.668 2.446 8.06 8.06 0 0 0-.607 3.173v.184a9.35 9.35 0 0 0 .576 3.387c.353.947.906 1.81 1.624 2.532a7.049 7.049 0 0 0 2.479 1.59 8.819 8.819 0 0 0 3.178.55c.9.015 1.798-.099 2.665-.337a7.3 7.3 0 0 0 1.933-.856 5.43 5.43 0 0 0 1.293-1.145c.304-.373.565-.777.78-1.205l-3.374-1.835a3.025 3.025 0 0 1-1.124 1.205c-.523.336-1.272.504-2.25.504a4.353 4.353 0 0 1-1.417-.229 3.878 3.878 0 0 1-1.184-.64 3.058 3.058 0 0 1-.81-.98zm.95-6.256c.62-.498 1.431-.747 2.43-.747.999 0 1.825.235 2.48.702.654.467 1.044 1.057 1.169 1.769h-7.294c.188-.651.593-1.226 1.214-1.724zm15.49 11.336h-3.928V.427h3.928v2.258h.561c.33-.829.934-1.527 1.714-1.983C88.152.233 89.077 0 90.138 0a6.212 6.212 0 0 1 2.104.351 4.703 4.703 0 0 1 1.73 1.083 5.02 5.02 0 0 1 1.169 1.862c.28.753.42 1.648.42 2.685v9.58h-3.928V6.959c0-1.079-.264-1.928-.794-2.548-.53-.62-1.294-.93-2.293-.931-1.166 0-2.033.381-2.602 1.144-.569.762-.855 1.784-.857 3.066l.002 7.873zm25.78 0V11.9H100.77v-.549l9.724-4.7V.428H97.592v3.54h9.536v.549l-9.724 4.638v6.408h13.465z" fill="#A575F7"/>
</svg>
